packages/icons/src/assets/default/fullscreen-exit.svg

<svg width="18" height="18" viewBox="0 0 18 18" fill="none" xmlns="http://www.w3.org/2000/svg">
<path fill-rule="evenodd" clip-rule="evenodd" d="M7.88295 1.93002C7.50795 1.77302 7.07995 1.86002 6.79295 2.14702L2.14595 6.79302C1.85895 7.08002 1.77395 7.50802 1.92895 7.88302C2.08395 8.25802 2.44695 8.50002 2.85295 8.50002H7.49995C8.05095 8.50002 8.49995 8.05102 8.49995 7.50002V2.85402C8.49995 2.44802 8.25795 2.08502 7.88295 1.93002Z" fill="black"/>
<path fill-rule="evenodd" clip-rule="evenodd" d="M15.146 9.5H10.5C9.949 9.5 9.5 9.949 9.5 10.5V15.146C9.5 15.552 9.742 15.915 10.117 16.07C10.242 16.122 10.372 16.147 10.501 16.147C10.761 16.147 11.015 16.045 11.207 15.854L15.853 11.208C16.14 10.921 16.225 10.493 16.07 10.118C15.915 9.743 15.552 9.501 15.146 9.501V9.5Z" fill="black"/>
</svg>

<svg xmlns="http://www.w3.org/2000/svg" height="18" width="18" viewBox="0 0 18 18" fill="currentColor">
  <path
    d="M7.883,1.93c-.375-.157-.803-.07-1.09,.217L2.146,6.793c-.287,.287-.372,.715-.217,1.09s.518,.617,.924,.617H7.5c.551,0,1-.449,1-1V2.854c0-.406-.242-.769-.617-.924Z"
    class="arrow-1"
  />
  <path
    d="M15.146,9.5h-4.646c-.551,0-1,.449-1,1v4.646c0,.406,.242,.769,.617,.924,.125,.052,.255,.077,.384,.077,.26,0,.514-.102,.706-.293l4.646-4.646c.287-.287,.372-.715,.217-1.09s-.518-.617-.924-.617Z"
    class="arrow-2"
  />
</svg>
